packages/calcite-ui-icons/icons/model-history-32.svg

<?xml version="1.0" encoding="UTF-8"?><svg id="icons" xmlns="http://www.w3.org/2000/svg" viewBox="0 0 32 32"><defs><style>.cls-1{fill:none;}.cls-1,.cls-2{stroke-width:0px;}</style></defs><path class="cls-2" d="M26.49982,14c-.0871,0-.16864.0191-.25446.02399-.93152.81195-2.05072,1.40839-3.28473,1.72101-.49097.6377-.81573,1.4115-.91022,2.255h-3.05042v-2.26514c-.65594-.16974-1.28168-.41388-1.86139-.73486h-4.59955l-2.6134-2.6134c.66071-.78326,1.0744-1.78192,1.07434-2.88684-.00012-2.48523-2.01489-4.49988-4.50018-4.49976s-4.49097,2.01471-4.49084,4.5,2.00598,4.50012,4.49121,4.5c1.01892-.00006,1.94806-.35156,2.70233-.92249l2.79749,2.79749v5.41797l-2.70544,2.70544c-.76965-.61523-1.73273-.99847-2.79474-.99841-2.48529.00012-4.49097,2.01495-4.49084,4.50024.00012,2.48523,2.00598,4.49988,4.49121,4.49976,2.48529-.00012,4.49994-2.01489,4.49982-4.50018-.00006-1.06189-.38318-2.02484-.99835-2.79443l2.70538-2.70538h6.29297v-3h3.05042c.25177,2.24683,2.13574,4.00012,4.44983,4,2.48523-.00012,4.49988-2.01495,4.49976-4.50018-.00012-2.48529-2.01489-4.49994-4.50018-4.49982ZM6.50031,13c-1.92999,0-3.5-1.56927-3.5-3.5,0-1.92932,1.57001-3.5,3.5-3.5,1.92926,0,3.5,1.57068,3.5,3.5,0,1.93073-1.57074,3.5-3.5,3.5ZM6.50031,31c-1.92999,0-3.5-1.56921-3.5-3.5,0-1.92926,1.57001-3.5,3.5-3.5,1.92926,0,3.5,1.57074,3.5,3.5,0,1.93079-1.57074,3.5-3.5,3.5ZM18,21h-5v-5h5v5ZM26.50031,22c-1.92999,0-3.5-1.56927-3.5-3.5,0-1.92926,1.57001-3.5,3.5-3.5,1.92926,0,3.5,1.57074,3.5,3.5,0,1.93073-1.57074,3.5-3.5,3.5ZM21,14.79816c3.75629,0,6.79999-3.04443,6.79999-6.79993,0-3.75635-3.0437-6.79999-6.79999-6.79999-3.75537,0-6.79999,3.04364-6.79999,6.79999,0,3.75549,3.04462,6.79993,6.79999,6.79993ZM21,2.19824c3.19873,0,5.79999,2.60168,5.79999,5.80023s-2.60126,5.79974-5.79999,5.79974-5.79999-2.6012-5.79999-5.79974,2.60132-5.80023,5.79999-5.80023ZM24,9h-4v-5h1v4h3v1Z"/><rect class="cls-1" width="32" height="32"/></svg>

<svg xmlns="http://www.w3.org/2000/svg" viewBox="0 0 32 32"><path d="M26.5 14c-.087 0-.169.02-.255.024a7.976 7.976 0 0 1-3.284 1.721A4.515 4.515 0 0 0 22.05 18H19v-2.265A7.946 7.946 0 0 1 17.139 15h-4.6l-2.613-2.613A4.46 4.46 0 0 0 11 9.5C11 7.015 8.985 5 6.5 5S2.009 7.015 2.009 9.5 4.015 14 6.5 14a4.46 4.46 0 0 0 2.703-.922L12 15.875v5.418l-2.705 2.705A4.457 4.457 0 0 0 6.5 23a4.492 4.492 0 0 0-4.491 4.5c0 2.485 2.006 4.5 4.491 4.5a4.5 4.5 0 0 0 4.5-4.5 4.458 4.458 0 0 0-.998-2.795L12.707 22H19v-3h3.05c.252 2.247 2.136 4 4.45 4a4.5 4.5 0 0 0 0-9zm-20-1C4.57 13 3 11.43 3 9.5S4.57 6 6.5 6 10 7.57 10 9.5 8.43 13 6.5 13zm0 18C4.57 31 3 29.43 3 27.5S4.57 24 6.5 24s3.5 1.57 3.5 3.5S8.43 31 6.5 31zM18 21h-5v-5h5v5zm8.5 1c-1.93 0-3.5-1.57-3.5-3.5s1.57-3.5 3.5-3.5 3.5 1.57 3.5 3.5-1.57 3.5-3.5 3.5zM21 14.798a6.8 6.8 0 0 0 6.8-6.8 6.8 6.8 0 0 0-6.8-6.8 6.8 6.8 0 1 0 0 13.6zm0-12.6c3.199 0 5.8 2.602 5.8 5.8s-2.601 5.8-5.8 5.8-5.8-2.601-5.8-5.8 2.601-5.8 5.8-5.8zM24 9h-4V4h1v4h3v1z" stroke-width="0"/><path stroke-width="0" fill="none" d="M0 0h32v32H0z"/></svg>
